X:1
T:Fugfidh Mise and Baile Seo
M:6/8
C:Traditional
B:A Str 's a Storn
K:G
D|G2AG2F|D2EF2G|ABcA2G|F3D2
F|G2AG2F|D2EF2G|ABcA2F|G3G2
B/1B/1|d3d2B|cBcd2c|B2cA2G|F3D3|
G2AG2F|D2EF2G|ABcA2F|G3G2||
W:
W: Fugfidh mise an baile seo mar t s dghrnna
W: 'S rachaidh m go Connachta n siar go Laighean U Era
W: An it a bhfaighidh m pg  mo str is mle filte
W: Seal(a)bhn deas b is cead mo phsadh ar a' tiliir.
W:
W: A Mhuire nach m an trua(ighe) 's m pst ar a' sclbha
W: Nach ligeann amach 'un Aifrinn m l saoire n D Domhnaigh
W: Nach dtann go tigh a' leanna 's nach n-lfadh gine ir liom
W: 'S nach dteannfadh lena chro m mar dheanfadh buachaill og/ m.
W:
W: Psadh go hg m mar gheall ar na punta
W: Ln mo dh laimh is nor shsaigh s 'riamh m'intinn
W: Nach trua nach dtig an reacht amach mar 't ar bha 's ar chaoirigh
W: An t nach dtaitneodh an margadh leis a sheoladh ar ais 'un aonaigh.
W:
W: Fugfidh mise an baile seo mar t s dghrnna
W: 'S rachaidh m go Connachta n siar go Laighean U Era
W: An it a bhfaighidh m pg  mo str is mle filte
W: Seal(a)bhn deas b is cead mo phsadh ar a' tiliir.
